X: 1
T: Ormonde Waters'
M: 4/4
L: 1/8
R: reel
D: Jason O'Rourke &amp; Ruadhrai O'Kane - Roguery Road
K: Fmaj
AFFE ~F3G|AFFG AG~G2|AF~F2 AFAc|d2cd AG~G2:|
Accd cAFG|A2FA GAFG|Accd cAFG|AGGF ~G2FG|
Accd cAFG|A2FA GAFG|~A3G Adde|dcAF ~G2FG||
